src/dsmComponents/Icons/alert-20px.svg

<?xml version="1.0" encoding="UTF-8"?>
<svg width="20px" height="20px" viewBox="0 0 20 20" version="1.1" xmlns="http://www.w3.org/2000/svg" xmlns:xlink="http://www.w3.org/1999/xlink">
    <!-- Generator: Sketch 59.1 (86144) - https://sketch.com -->
    <title>alert-20px</title>
    <desc>Created with Sketch.</desc>
    <defs>
        <path d="M10,0 C15.5228475,0 20,4.4771525 20,10 C20,15.5228475 15.5228475,20 10,20 C4.4771525,20 0,15.5228475 0,10 C0,4.4771525 4.4771525,0 10,0 Z M10,2 C5.581722,2 2,5.581722 2,10 C2,14.418278 5.581722,18 10,18 C14.418278,18 18,14.418278 18,10 C18,5.581722 14.418278,2 10,2 Z M10,12.9144385 C10.6054458,12.9144385 11.0962567,13.4052493 11.0962567,14.0106952 C11.0962567,14.616141 10.6054458,15.1069519 10,15.1069519 C9.39455415,15.1069519 8.90374332,14.616141 8.90374332,14.0106952 C8.90374332,13.4052493 9.39455415,12.9144385 10,12.9144385 Z M10,4.81283422 C10.6497468,4.81283422 11.1764706,5.33955805 11.1764706,5.98930481 L11.1764706,5.98930481 L11.1764706,10.802139 C11.1764706,11.4518858 10.6497468,11.9786096 10,11.9786096 C9.35025324,11.9786096 8.82352941,11.4518858 8.82352941,10.802139 L8.82352941,10.802139 L8.82352941,5.98930481 C8.82352941,5.33955805 9.35025324,4.81283422 10,4.81283422 Z" id="path-1"></path>
    </defs>
    <g id="Final" stroke="none" stroke-width="1" fill="none" fill-rule="evenodd">
        <g id="All-Nucleo-Icons" transform="translate(-463.000000, -6040.000000)">
            <g id="Solo/Nucleo/20px/alert" transform="translate(461.000000, 6038.000000)">
                <g id="Solo/Nucleo/20px/status-warning" transform="translate(2.000000, 2.000000)">
                    <g id="c-warning">
                        <g id="Colour/Default-Colour">
                            <mask id="mask-2" fill="white">
                                <use xlink:href="#path-1"></use>
                            </mask>
                            <g id="Mask" fill-rule="nonzero"></g>
                            <g id="colour/neutral/chia" mask="url(#mask-2)" fill="#737373">
                                <g transform="translate(-22.000000, -22.000000)" id="Colour">
                                    <rect x="0" y="0" width="64" height="64"></rect>
                                </g>
                            </g>
                        </g>
                    </g>
                </g>
            </g>
        </g>
    </g>
</svg>

<svg width="20" height="20" xmlns="http://www.w3.org/2000/svg" xmlns:xlink="http://www.w3.org/1999/xlink"><defs><path d="M10 0c5.523 0 10 4.477 10 10s-4.477 10-10 10S0 15.523 0 10 4.477 0 10 0zm0 2a8 8 0 100 16 8 8 0 000-16zm0 10.914a1.096 1.096 0 110 2.193 1.096 1.096 0 010-2.193zm0-8.101c.65 0 1.176.527 1.176 1.176v4.813a1.176 1.176 0 11-2.352 0V5.99c0-.65.526-1.176 1.176-1.176z" id="alert-20px_svg__a"/></defs><use fill="#737373" xlink:href="#alert-20px_svg__a" fill-rule="evenodd"/></svg>
